.local/share/icons/Gruvbox-Plus-Dark/panel/16/ic_light_enpass.svg

<svg width="16" height="16" version="1.1" xmlns="http://www.w3.org/2000/svg">
  <defs>
    <style id="current-color-scheme" type="text/css">.ColorScheme-Text { color:#ebdbb2; } .ColorScheme-Highlight { color:#458588; } .ColorScheme-NeutralText { color:#fe8019; } .ColorScheme-PositiveText { color:#689d6a; } .ColorScheme-NegativeText { color:#fb4934; }</style>
  </defs>
  <path class="ColorScheme-Text" d="m8 1a7 7 0 0 0-7 7 7 7 0 0 0 7 7 7 7 0 0 0 7-7 7 7 0 0 0-7-7zm-1.5 3h3c0.831 0 1.5 0.6792 1.5 1.523v0.7637c0 0.8439-0.669 1.713-1.5 1.713h-0.5v3.238c0 0.422-0.21 0.762-0.625 0.762h-0.75c-0.415 0-0.61-0.34-0.625-0.762v-3.238h-0.5c-0.831 0-1.5-0.8693-1.5-1.713v-0.7637c0-0.8442 0.669-1.523 1.5-1.523z" fill="currentColor"/>
</svg>

<svg xmlns="http://www.w3.org/2000/svg" width="16" height="16" version="1">
 <defs>
  <style id="current-color-scheme" type="text/css">
   .ColorScheme-Text { color:#ebdbb2; } .ColorScheme-Highlight { color:#458588; }
  </style>
 </defs>
 <path style="fill:currentColor" class="ColorScheme-Text" d="M 8,1 A 7,7 0 0 0 1,8 7,7 0 0 0 8,15 7,7 0 0 0 15,8 7,7 0 0 0 8,1 Z M 6.5,4 H 9.5 C 10.331,4 11,4.6792 11,5.5234 V 6.2871 C 11,7.131 10.331,8 9.5,8 H 9 V 11.238 C 9,11.66 8.79,12 8.375,12 H 7.625 C 7.21,12 7.015,11.66 7,11.238 V 8 H 6.5 C 5.669,8 5,7.1307 5,6.2871 V 5.5234 C 5,4.6792 5.669,4 6.5,4 Z"/>
</svg>
